source/img/icon/icon-call.svg

<svg width="18" height="18" viewBox="0 0 18 18" fill="none" xmlns="http://www.w3.org/2000/svg">
<path d="M8.97412 7.42388C8.97412 7.61288 9.12775 7.76138 9.3155 7.76138C9.70468 7.76138 10.0187 8.07526 10.0187 8.45663C10.0187 8.64225 10.1724 8.79413 10.3601 8.79413C10.5479 8.79413 10.7015 8.64225 10.7015 8.45663C10.7015 7.70064 10.0802 7.08638 9.3155 7.08638C9.12775 7.08638 8.97412 7.23826 8.97412 7.42388ZM14.5318 8.79413C14.723 8.79413 14.8732 8.64225 14.8732 8.45663C14.8732 5.42589 12.3811 2.96214 9.3155 2.96214C9.12775 2.96214 8.97412 3.114 8.97412 3.29964C8.97412 3.48526 9.12775 3.63714 9.3155 3.63714C12.0056 3.63714 14.1904 5.80051 14.1904 8.45663C14.1904 8.64225 14.344 8.79413 14.5318 8.79413Z" fill="#161C35"/>
<path d="M12.1047 8.45663C12.1047 8.64225 12.2583 8.79413 12.446 8.79413C12.6338 8.79413 12.7874 8.64225 12.7874 8.45663C12.7874 6.56326 11.2307 5.02426 9.3156 5.02426C9.12785 5.02426 8.97422 5.17614 8.97422 5.36176C8.97422 5.55076 9.12785 5.69926 9.3156 5.69926C10.8552 5.69926 12.1047 6.93788 12.1047 8.45663ZM9.3156 0.900002C9.12785 0.900002 8.97422 1.05188 8.97422 1.2375C8.97422 1.42314 9.12785 1.575 9.3156 1.575C13.1561 1.575 16.2797 4.66314 16.2797 8.45663C16.2797 8.64225 16.43 8.79413 16.6211 8.79413C16.8089 8.79413 16.9625 8.64225 16.9625 8.45663C16.9625 4.28852 13.5316 0.900002 9.3156 0.900002ZM12.6509 12.0139L12.2037 12.2535C11.4492 12.6619 10.8621 13.7813 9.93111 12.9375L7.50006 10.5L5.39999 8.45663C4.3449 7.1235 5.5263 6.80625 5.93936 6.05701L6.18174 5.61827C6.45484 5.11875 6.55383 4.55851 6.47191 3.99825C6.3934 3.43801 6.13736 2.92838 5.7277 2.52338C5.2293 2.03064 4.56703 1.76064 3.86037 1.76064C3.15371 1.76064 2.48802 2.03064 1.9896 2.52338L1.81551 2.69888C0.893782 3.61014 0.787955 5.1795 1.51509 7.1235C2.20125 8.97975 3.58385 10.9913 5.39999 12.7868C8.16857 15.5239 11.2512 17.1 13.4634 17.1C14.3373 17.1 15.0781 16.8536 15.6038 16.3339L15.7813 16.1584C16.2763 15.669 16.5528 15.0143 16.5563 14.3089C16.5528 13.6204 16.2695 12.9454 15.7813 12.4628C14.9586 11.6494 13.6716 11.4671 12.6509 12.0139Z" fill="#161C35"/>
</svg>

<svg viewBox="0 0 18 18" xmlns="http://www.w3.org/2000/svg">
  <path d="M8.97 7.42c0 .2.16.34.35.34.38 0 .7.32.7.7 0 .18.15.33.34.33.19 0 .34-.15.34-.33 0-.76-.62-1.37-1.38-1.37a.34.34 0 00-.35.33zm5.56 1.37c.2 0 .34-.15.34-.33 0-3.03-2.49-5.5-5.55-5.5a.34.34 0 00-.35.34c0 .19.16.34.35.34a4.85 4.85 0 014.87 4.82c0 .18.15.33.34.33z"/>
  <path d="M12.1 8.46c0 .18.16.33.35.33.18 0 .34-.15.34-.33 0-1.9-1.56-3.44-3.47-3.44a.34.34 0 00-.35.34c0 .2.16.34.35.34a2.78 2.78 0 012.78 2.76zM9.32.9a.34.34 0 00-.35.34c0 .18.16.33.35.33a6.93 6.93 0 016.96 6.89c0 .18.15.33.34.33.19 0 .34-.15.34-.33A7.61 7.61 0 009.32.9zm3.33 11.11l-.45.24c-.75.41-1.34 1.53-2.27.69L7.5 10.5 5.4 8.46c-1.06-1.34.13-1.65.54-2.4l.24-.44a2.57 2.57 0 00-.45-3.1c-.5-.49-1.16-.76-1.87-.76-.7 0-1.37.27-1.87.76l-.17.18c-.93.91-1.03 2.48-.3 4.42A16.39 16.39 0 005.4 12.8c2.77 2.73 5.85 4.31 8.06 4.31.88 0 1.62-.25 2.14-.77l.18-.17a2.6 2.6 0 000-3.7c-.82-.81-2.1-1-3.13-.45z"/>
</svg>
